src/images_karasa_jaga_svg/cmd/sc_starshapes.star5.svg

<svg height="16" viewBox="0 0 16 16" width="16" xmlns="http://www.w3.org/2000/svg" xmlns:xlink="http://www.w3.org/1999/xlink"><linearGradient id="a" gradientUnits="userSpaceOnUse" x1="-5.896006" x2="38.491138" y1="-44.78648" y2="123.49805"><stop offset="0" stop-color="#7c9fcf"/><stop offset=".5" stop-color="#7c9ece"/><stop offset="1" stop-color="#7b9dcf"/></linearGradient><linearGradient id="b" gradientUnits="userSpaceOnUse" x1="66.565071" x2="22.787996" y1="87.500175" y2="-44.472157"><stop offset="0" stop-color="#fff"/><stop offset=".39715832" stop-color="#fff"/><stop offset=".79970485" stop-color="#f1f1f1"/><stop offset=".90234375" stop-color="#eaeaea"/><stop offset="1" stop-color="#dfdfdf"/></linearGradient><path d="m69.651329 78.391236-44.845039-13.41391-32.3281215 33.851189-1.1004934-46.795293-42.1843321-20.285278 44.164897-15.507172 6.25677024-46.388179 28.39590076 37.2113328 46.051229-8.3841937-26.615265 38.5050409z" style="opacity:.891386;stroke-width:8.67224;stroke-linecap:round;stroke-linejoin:round;stroke-dashoffset:1.0878;fill:url(#b);stroke:url(#a)" transform="matrix(.11151098 .02940494 -.02941241 .1114835 7.150855 4.287832)"/></svg>

<?xml version="1.0" encoding="UTF-8" standalone="no"?>
<svg
   xmlns:dc="http://purl.org/dc/elements/1.1/"
   xmlns:cc="http://creativecommons.org/ns#"
   xmlns:rdf="http://www.w3.org/1999/02/22-rdf-syntax-ns#"
   xmlns:svg="http://www.w3.org/2000/svg"
   xmlns="http://www.w3.org/2000/svg"
   xmlns:xlink="http://www.w3.org/1999/xlink"
   xmlns:sodipodi="http://sodipodi.sourceforge.net/DTD/sodipodi-0.dtd"
   xmlns:inkscape="http://www.inkscape.org/namespaces/inkscape"
   height="128"
   viewBox="0 0 128 128"
   width="128"
   version="1.1"
   id="svg31"
   sodipodi:docname="sc_starshapes.star5.svg"
   inkscape:version="0.92.3 (unknown)"
   inkscape:export-filename="/home/rizmut/Dokumen/Rizmut/Github/libreoffice-style-karasa-jaga/build/images_karasa_jaga/cmd/sc_starshapes.star5.png"
   inkscape:export-xdpi="12"
   inkscape:export-ydpi="12">
  <metadata
     id="metadata37">
    <rdf:RDF>
      <cc:Work
         rdf:about="">
        <dc:format>image/svg+xml</dc:format>
        <dc:type
           rdf:resource="http://purl.org/dc/dcmitype/StillImage" />
        <dc:title></dc:title>
      </cc:Work>
    </rdf:RDF>
  </metadata>
  <defs
     id="defs35">
    <linearGradient
       id="linearGradient3369">
      <stop
         id="stop3372"
         offset="0"
         style="stop-color:#ffffff;stop-opacity:1;" />
      <stop
         style="stop-color:#ffffff;stop-opacity:1;"
         offset="0.39715832"
         id="stop3374" />
      <stop
         style="stop-color:#f1f1f1;stop-opacity:1;"
         offset="0.79970485"
         id="stop3376" />
      <stop
         id="stop3378"
         offset="0.90234375"
         style="stop-color:#eaeaea;stop-opacity:1;" />
      <stop
         id="stop3384"
         offset="1"
         style="stop-color:#dfdfdf;stop-opacity:1;" />
    </linearGradient>
    <linearGradient
       id="linearGradient7422">
      <stop
         style="stop-color:#7c9fcf;stop-opacity:1"
         offset="0"
         id="stop7424" />
      <stop
         id="stop5348"
         offset="0.5"
         style="stop-color:#7c9ece;stop-opacity:1" />
      <stop
         id="stop7426"
         offset="1"
         style="stop-color:#7b9dcf;stop-opacity:1" />
    </linearGradient>
    <linearGradient
       inkscape:collect="always"
       xlink:href="#linearGradient7422"
       id="linearGradient3306"
       gradientUnits="userSpaceOnUse"
       x1="-5.8960056"
       y1="-44.78648"
       x2="38.491138"
       y2="123.49805" />
    <linearGradient
       id="linearGradient2443">
      <stop
         style="stop-color:#b4b4b6;stop-opacity:1;"
         offset="0"
         id="stop2445" />
      <stop
         id="stop2447"
         offset="0.5"
         style="stop-color:#9c9ca1;stop-opacity:1;" />
      <stop
         id="stop2449"
         offset="1"
         style="stop-color:#cdcdd1;stop-opacity:1;" />
    </linearGradient>
    <linearGradient
       inkscape:collect="always"
       xlink:href="#linearGradient3369"
       id="linearGradient6616"
       x1="66.565071"
       y1="87.500175"
       x2="22.787996"
       y2="-44.472157"
       gradientUnits="userSpaceOnUse" />
  </defs>
  <sodipodi:namedview
     pagecolor="#ffffff"
     bordercolor="#666666"
     borderopacity="1"
     objecttolerance="10"
     gridtolerance="10"
     guidetolerance="10"
     inkscape:pageopacity="0"
     inkscape:pageshadow="2"
     inkscape:window-width="1364"
     inkscape:window-height="704"
     id="namedview33"
     showgrid="true"
     inkscape:zoom="0.90509668"
     inkscape:cx="-30.414837"
     inkscape:cy="20.149382"
     inkscape:window-x="0"
     inkscape:window-y="0"
     inkscape:window-maximized="0"
     inkscape:current-layer="svg31"
     inkscape:snap-global="true">
    <inkscape:grid
       type="xygrid"
       id="grid844"
       spacingx="8"
       spacingy="8"
       empspacing="2" />
  </sodipodi:namedview>
  <linearGradient
     id="a">
    <stop
       offset="0"
       stop-color="#f9f9fa"
       id="stop2" />
    <stop
       offset="1"
       stop-color="#f9f9fa"
       stop-opacity="0"
       id="stop4" />
  </linearGradient>
  <linearGradient
     id="b"
     gradientUnits="userSpaceOnUse"
     x1="42.276669"
     x2="-13.469376"
     xlink:href="#a"
     y1="50.867565"
     y2="104.97279" />
  <linearGradient
     id="c"
     gradientUnits="userSpaceOnUse"
     x1="-1.817377"
     x2="2.172436"
     xlink:href="#a"
     y1="55.003803"
     y2="116.784" />
  <path
     sodipodi:type="star"
     style="opacity:0.89138579;fill:url(#linearGradient6616);fill-opacity:1;stroke:url(#linearGradient3306);stroke-width:8.67223957;stroke-linecap:round;stroke-linejoin:round;stroke-miterlimit:4;stroke-dasharray:none;stroke-dashoffset:1.08780003;stroke-opacity:1"
     id="path2315"
     sodipodi:sides="5"
     sodipodi:cx="16.999998"
     sodipodi:cy="35.500004"
     sodipodi:r1="67.910385"
     sodipodi:r2="30.493454"
     sodipodi:arg1="0.68359684"
     sodipodi:arg2="1.3119154"
     inkscape:flatsided="false"
     inkscape:rounded="0"
     inkscape:randomized="0"
     d="M 69.651329,78.391236 24.80629,64.977326 -7.5218315,98.828515 -8.6223249,52.033222 -50.806657,31.747944 -6.64176,16.240772 -0.38498976,-30.147407 28.010911,7.0639258 74.06214,-1.3202679 47.446875,37.184773 Z"
     transform="matrix(0.8920878,0.2352395,-0.2352993,0.891868,57.206839,34.302658)" />
</svg>
